!!!!SEGMENT: pl-kk--kk-i-2--034_anonim--gaudeamus-omnes-in-domino.krn
!!!cenid: 16xx:1654
!!!COM: Anonim
!!!COM-rismID: pe30004985
!!!CDT:
!!!CNT:
!!!OTL: Gaudeamus omnes in Domino
!!!PDT:
!!!AGN: Sacred
!!!SMS-siglum: PL-Kk
!!!SMS-shelfmark: Kk.I.2
!!!SMS-shelfwork: 034 W
!!!NIFC-rismSourceID: 300258016
!!!NIFC-rismChildID: 300258052
!!!NIFC-islandoraID: pl-kk:750
!!!URL-pdf-islandora: https://repozytorium.nifc.pl/islandora/object/pl-kk%3A750/datastream/PDF/view
!!!URL-scan: https://polish.musicsources.pl/pl/lokalizacje/galeria/rekopisy/5828 @EN{Scan on Polish Music Sources Website} @PL{Skany w portalu Dziedzictwo Muzyki Polskiej w otwartym dostępie}
!!!ONB-nifc: skany: C: 0057-0058; A: 0160-0161; T: 0262-0263; B: 0360-0361;
!!!AIN: 3 empty 1 tenor
!!!key: d:dor
**kern	**text	**text	**kern	**text	**text	**kern	**text	**text	**kern	**text	**text
*part4	*part4	*part4	*part3	*part3	*part3	*part2	*part2	*part2	*part1	*part1	*part1
*staff4	*staff4	*staff4	*staff3	*staff3	*staff3	*staff2	*staff2	*staff2	*staff1	*staff1	*staff1
*Iempty	*	*	*Itenor	*	*	*Iempty	*	*	*Iempty	*	*
*I"BASSUS	*	*	*I"TENOR	*	*	*I"ALTUS	*	*	*I"CANTUS	*	*
*ICvox	*	*	*ICvox	*	*	*ICvox	*	*	*ICvox	*	*
*clefF4	*	*	*clefC4	*	*	*clefC3	*	*	*clefC1	*	*
*k[]	*	*	*k[]	*	*	*k[]	*	*	*k[]	*	*
*d:dor	*	*	*d:dor	*	*	*d:dor	*	*	*d:dor	*	*
*M2/1	*	*	*M2/1	*	*	*M2/1	*	*	*M2/1	*	*
*met(C|)	*	*	*met(C|)	*	*	*met(C|)	*	*	*met(C|)	*	*
*2\right	*	*	*2\right	*	*	*	*	*	*2\right	*	*
=1-	=1-	=1-	=1-	=1-	=1-	=1-	=1-	=1-	=1-	=1-	=1-
*xywh-#360:1604,3107,6174,1052	*	*	*xywh-#262:1357,2104,6307,1210	*	*	*xywh-#160:7770,1151,6355,1182	*	*	*xywh-#57:7919,1969,6412,1218	*	*
!LO:TX:t=Introitus Pro Aſsumptione B.V. Maria	!	!	!LO:TX:t=Introitus Pro Aſsumptione B.V. Maria.	!	!	!LO:TX:t=Introitus Pro Aſsumptione B.V. Maria.	!	!	!LO:TX:t=Introitus Pro Aſsumptione B.V. Maria	!	!
1.C	Gau-	.	2.C/	Gau-	.	2.G/	Gau-	.	0c	Gau-	.
!	!	!	!LO:TX:t=P:problem=kreska pseudotaktowa	!	!	!LO:TX:t=P:problem=kreska pseudotaktowa	!	!	!	!	!
.	.	.	4D/	-de-	.	4F/	.	.	.	.	.
.	.	.	2E/	.	.	2G/	.	.	.	.	.
!LO:TX:t=P:problem=kreska pseudotaktowa	!	!	!	!	!	!LO:TX:t=P:problem=kreska pseudotaktowa	!	!	!	!	!
2AA/	-de-	.	2C/	.	.	1.A/	.	.	.	.	.
=2-	=2-	=2-	=2-	=2-	=2-	=2-	=2-	=2-	=2-	=2-	=2-
!	!	!	!LO:TX:t=P:problem=kreska pseudotaktowa	!	!	!	!	!	!LO:TX:t=P:problem=kreska pseudotaktowa	!	!
1D	-a-	.	1F	.	.	.	.	.	1d	-de-	.
*	*	*	*	*	*	*	*	*	*lig	*	*
!	!	!	!	!	!	!LO:TX:t=P:problem= ♭ przed poprzednią nutą	!	!	!	!	!
2GG/	-mus	.	2.D/	-a-	.	2B-X/	-de-	.	1d	-a-	.
2.D/	.	.	.	.	.	2.A/	-a-	.	.	.	.
!	!	!	!LO:TX:t=P:problem=kreska pseudotaktowa	!	!	!	!	!	!	!	!
.	.	.	4E/	.	.	.	.	.	.	.	.
=3-	=3-	=3-	=3-	=3-	=3-	=3-	=3-	=3-	=3-	=3-	=3-
.	.	.	4F/	.	.	.	.	.	1a	.	.
4E/	.	.	4G/	.	.	4F/	.	.	.	.	.
4F/	.	.	2.A/	.	.	1f	-mus	.	.	.	.
!LO:TX:t=P:problem=kreska pseudotaktowa	!	!	!	!	!	!	!	!	!	!	!
4G/	.	.	.	.	.	.	.	.	.	.	.
*	*	*	*	*	*	*	*	*	*Xlig	*	*
!LO:TX:t=P:problem=kreska pseudotaktowa	!	!	!	!	!	!	!	!	!	!	!
1A	.	.	.	.	.	.	.	.	1cc	.	.
.	.	.	4B/	.	.	.	.	.	.	.	.
*	*	*	*	*	*	*2\right	*	*	*	*	*
!	!	!	!LO:TX:t=P:problem=kreska pseudotaktowa	!	!	!LO:TX:t=P:problem=kreska pseudotaktowa	!	!	!	!	!
.	.	.	2c\	-mus	.	2e\	.	.	.	.	.
=4-	=4-	=4-	=4-	=4-	=4-	=4-	=4-	=4-	=4-	=4-	=4-
*	*	*	*	*	*	*2\left	*	*	*	*	*
!	!	!	!	!	!	!	!	!	!LO:TX:t=P:problem=kreska pseudotaktowa	!	!
2r	.	.	2d\	.	.	2f\	[[m]]	.	1a	-mus	.
!	!	!	!	!	!	!LO:TX:t=P:problem=kreska pseudotaktowa	!	!	!	!	!
2.AA/	.	.	1e	om-	.	2c/	o-	.	.	.	.
.	.	.	.	.	.	2A/	-mnes	.	1a	om-	.
4BB/	o-	.	.	.	.	.	.	.	.	.	.
4C/	.	.	4d\	.	.	2.e\	in	.	.	.	.
!LO:TX:t=P:problem=kreska pseudotaktowa	!	!	!LO:TX:t=P:problem=kreska pseudotaktowa	!	!	!	!	!	!	!	!
4D/	-mnes	.	4c/	.	.	.	.	.	.	.	.
=5-	=5-	=5-	=5-	=5-	=5-	=5-	=5-	=5-	=5-	=5-	=5-
*	*	*	*	*	*	*	*	*	*lig	*	*
1E	.	.	1B	-nes	.	.	.	.	1g	.	.
.	.	.	.	.	.	4d\	.	.	.	.	.
!	!	!	!	!	!	!LO:TX:t=P:problem=kreska pseudotaktowa	!	!	!	!	!
.	.	.	.	.	.	2e\	Do-	.	.	.	.
2F/	.	.	2A/	.	.	2c/	-mi-	.	1a	.	.
2D/	in	.	1d\	.	.	2f\	-no	.	.	.	.
*	*	*	*	*	*	*	*	*	*Xlig	*	*
=6-	=6-	=6-	=6-	=6-	=6-	=6-	=6-	=6-	=6-	=6-	=6-
*custos:D	*	*	*	*	*	*	*	*	*	*	*
!LO:TX:t=P:problem=kreska pseudotaktowa	!	!	!	!	!	!	!	!	!LO:TX:t=P:problem=kreska pseudotaktowa	!	!
1E	.	.	.	.	.	1e	.	.	1g	-nes	.
*	*	*	*custos:d	*	*	*	*	*	*	*	*
!	!	!	!LO:TX:t=P:problem=kreska pseudotaktowa	!	!	!	!	!	!	!	!
.	.	.	2c/	.	.	.	.	.	.	.	.
!LO:LB:g=original	!	!	!LO:LB:g=original	!	!	!LO:TX:t=P:problem=kreska pseudotaktowa	!	!	!	!	!
*xywh-#360:1507,3972,6229,1294	*	*	*xywh-#262:1385,3030,6369,1030	*	*	*	*	*	*	*	*
*	*	*	*	*	*	*	*	*	*lig	*	*
1D	.	.	1d	.	.	1A	.	.	1f	in	.
=7-	=7-	=7-	=7-	=7-	=7-	=7-	=7-	=7-	=7-	=7-	=7-
2GG/	.	.	2B/	in	.	2r	.	.	1g	.	.
4C/	.	.	2.G/	Do-	.	(1e	in	.	.	.	.
!LO:TX:t=P:problem=kreska pseudotaktowa	!	!	!	!	!	!	!	!	!	!	!
4D/	.	.	.	.	.	.	.	.	.	.	.
*	*	*	*	*	*	*	*	*	*Xlig	*	*
4E/	.	.	.	.	.	.	.	.	2.g/	do-	.
4F/	.	.	4A/	-mi-	.	.	.	.	.	.	.
*	*	*	*	*	*	*custos:g	*	*	*	*	*
!	!	!	!	!	!	!LO:TX:t=P:problem=kreska pseudotaktowa	!	!	!	!	!
1G\	.	.	4B/	.	.	2d\)	.	.	.	.	.
!	!	!	!LO:TX:t=P:problem=kreska pseudotaktowa	!	!	!	!	!	!LO:TX:t=P:problem=kreska pseudotaktowa	!	!
.	.	.	4c/	.	.	.	.	.	4a/	.	.
!	!	!	!	!	!	!LO:LB:g=original	!	!	!	!	!
=8-	=8-	=8-	=8-	=8-	=8-	=8-	=8-	=8-	=8-	=8-	=8-
*	*	*	*	*	*	*xywh-#160:7791,2043,6396,1078	*	*	*	*	*
.	.	.	2d\	.	.	1.g	Do-	.	2b/	.	.
1C	.	.	1e	.	.	.	.	.	1cc	.	.
!LO:TX:t=P:problem=kreska pseudotaktowa	!	!	!	!	!	!LO:TX:t=P:problem=kreska pseudotaktowa	!	!	!	!	!
2D/	in	.	4d\	.	.	2f\	-mi-	.	4b/	.	.
!	!	!	!LO:TX:t=P:problem=kreska pseudotaktowa	!	!	!	!	!	!LO:TX:t=P:problem=kreska pseudotaktowa	!	!
.	.	.	4c\	.	.	.	.	.	4a/	.	.
=9-	=9-	=9-	=9-	=9-	=9-	=9-	=9-	=9-	=9-	=9-	=9-
!	!	!	!	!	!	!LO:TX:t=P:problem=kreska pseudotaktowa	!	!	!	!	!
2E/	.	.	2B\	.	.	1e	-no	.	2g/	.	.
2C/	do-	.	2c\	.	.	.	.	.	1a	.	.
!	!	!	!LO:TX:t=P:problem=kreska pseudotaktowa	!	!	!	!	!	!	!	!
2D/	.	.	1B	.	.	2r	.	.	.	.	.
*	*	*	*	*	*	*	*	*	*custos:a	*	*
!LO:TX:t=P:problem=kreska pseudotaktowa	!	!	!	!	!	!LO:TX:t=P:problem=kreska pseudotaktowa	!	!	!LO:TX:t=P:problem=kreska pseudotaktowa	!	!
2E\	.	.	.	.	.	2e\	O-	[[di-	2g/	-mi-	.
!	!	!	!	!	!	!	!	!	!LO:LB:g=original	!	!
=10-	=10-	=10-	=10-	=10-	=10-	=10-	=10-	=10-	=10-	=10-	=10-
*	*	*	*	*	*	*	*	*	*xywh-#57:7883,2944,6384,1031	*	*
!	!	!	!	!	!	!	!	!	!LO:TX:t=P:problem=kreska pseudotaktowa	!	!
*	*	*	*	*	*	*	*	*	*	*	*
2F\	.	.	2A/	-no	.	2c/	-mnes	-em	1a	-no	.
1E	.	.	2B/	.	.	1g	in	fe-	.	.	.
.	.	.	2c\	in	.	.	.	.	1r	.	.
4D/	.	.	2.B/	do-	.	4f\	.	-stum	.	.	.
!LO:TX:t=P:problem=kreska pseudotaktowa	!	!	!	!	!	!LO:TX:t=P:problem=kreska pseudotaktowa	!	!	!	!	!
4C/	.	.	.	.	.	4e\	.	.	.	.	.
=11-	=11-	=11-	=11-	=11-	=11-	=11-	=11-	=11-	=11-	=11-	=11-
!	!	!	!	!	!	!LO:TX:t=P:problem=kreska pseudotaktowa	!	!	!	!	!
4D/	.	.	.	.	.	1d	Do-	.	0r	.	.
4C/	.	.	4A/	.	.	.	.	.	.	.	.
4BB/	.	.	1A	-mi-	.	.	.	.	.	.	.
4AA/	.	.	.	.	.	.	.	.	.	.	.
2BB/	-mi-	.	.	.	.	1d	-mi-	.	.	.	.
!LO:TX:t=P:problem=kreska pseudotaktowa	!	!	!LO:TX:t=P:problem=kreska pseudotaktowa	!	!	!	!	!	!	!	!
2BB/	-no	.	2G/	-no	.	.	.	.	.	.	.
=12-	=12-	=12-	=12-	=12-	=12-	=12-	=12-	=12-	=12-	=12-	=12-
!	!	!	!	!	!	!LO:TX:t=P:problem=kreska pseudotaktowa	!	!	!LO:TX:t=P:problem=kreska pseudotaktowa	!	!
2AA/	.	.	2.A/	.	.	1c	-no	.	1r	.	.
!LO:TX:t=P:problem=kreska pseudotaktowa	!	!	!	!	!	!	!	!	!	!	!
2A\	.	.	.	.	.	.	.	.	.	.	.
.	.	.	4B/	di-	.	.	.	.	.	.	.
(2F\	di-	.	2c\	-em	.	2r	.	.	0a	di-	.
2D/)	-em	.	1d\	.	.	1f\	Di-	ce-	.	.	.
=13-	=13-	=13-	=13-	=13-	=13-	=13-	=13-	=13-	=13-	=13-	=13-
1A	fe-	.	.	.	.	.	.	.	.	.	.
!	!	!	!LO:TX:t=P:problem=kreska pseudotaktowa	!	!	!LO:TX:t=P:problem=kreska pseudotaktowa	!	!	!	!	!
.	.	.	2c\	.	.	2e\	-em	-le-	.	.	.
!LO:TX:t=P:problem=kreska pseudotaktowa	!	!	!LO:TX:t=P:problem=kreska pseudotaktowa	!	!	!	!	!	!LO:TX:t=P:problem=kreska pseudotaktowa	!	!
1D	-ſtum	.	1d	.	.	4a\	fe-	.	1f	-em	.
.	.	.	.	.	.	4g\	.	-bran-	.	.	.
.	.	.	.	.	.	4f\	.	.	.	.	.
.	.	.	.	.	.	4e\	.	.	.	.	.
=14-	=14-	=14-	=14-	=14-	=14-	=14-	=14-	=14-	=14-	=14-	=14-
*	*ij	*	*	*	*	*lig	*	*	*	*	*
2r	.	.	2.G/	feſ-	.	1d	.	.	1g	fe-	.
2G\	di-	.	.	.	.	.	.	.	.	.	.
.	.	.	4A/	.	.	.	.	.	.	.	.
*	*	*	*	*	*	*	*	*	*lig	*	*
2E/	.	.	2B/	-tum	.	1e	.	-tes]]	1g	-ſtum	.
*custos:D	*	*	*	*	*	*	*	*	*	*	*
!LO:TX:t=P:problem=kreska pseudotaktowa	!	!	!	!	!	!	!	!	!	!	!
2C/	-em	.	1c\	.	.	.	.	.	.	.	.
*	*	*	*	*	*	*Xlig	*	*	*	*	*
!LO:LB:g=original	!	!	!	!	!	!	!	!	!	!	!
=15-	=15-	=15-	=15-	=15-	=15-	=15-	=15-	=15-	=15-	=15-	=15-
*xywh-#360:7712,691,6624,1128	*	*	*	*	*	*	*	*	*	*	*
!	!	!	!	!	!	!LO:TX:t=P:problem=kreska pseudotaktowa	!	!	!	!	!
1D	fes-	.	.	.	.	1d	-stum	.	1f	.	.
*	*	*	*custos:c	*	*	*	*	*	*	*	*
!	!	!	!LO:TX:t=P:problem=kreska pseudotaktowa	!	!	!	!	!	!	!	!
.	.	.	2B/	.	.	.	.	.	.	.	.
*	*	*	*	*	*	*	*	*	*Xlig	*	*
!	!	!	!LO:LB:g=original	!	!	!	!	!	!	!	!
!LO:TX:t=P:problem=kreska pseudotaktowa	!	!	!	!	!	!	!	!	!	!	!
*	*	*	*	*	*	*	*	*	*lig	*	*
*	*	*	*	*	*	*	*	*	*	*	*
*	*	*	*xywh-#262:1503,3805,6258,1396	*	*	*	*	*	*	*	*
1C	-tum	.	2.c/	.	.	1G	ce-	.	1e	.	.
*	*Xij	*	*	*	*	*	*	*	*	*	*
!	!	!	!LO:TX:t=P:problem=kreska pseudotaktowa	!	!	!	!	!	!	!	!
.	.	.	4B/	.	.	.	.	.	.	.	.
=16-	=16-	=16-	=16-	=16-	=16-	=16-	=16-	=16-	=16-	=16-	=16-
!LO:TX:t=P:problem=kreska pseudotaktowa	!	!	!	!	!	!	!	!	!	!	!
!	!	!	!	!	!	!	!	!	!LO:TX:t=P:problem=kreska pseudotaktowa	!	!
1D	.	.	1A	.	.	2.d\	-le-	.	1f	.	.
!	!	!	!	!	!	!LO:TX:t=P:problem=kreska pseudotaktowa	!	!	!	!	!
.	.	.	.	.	.	4c/	.	.	.	.	.
*	*	*	*	*	*	*	*	*	*Xlig	*	*
!	!	!	!LO:TX:t=P:problem=kreska pseudotaktowa	!	!	!	!	!	!	!	!
4G/	ce-	.	1G,	.	.	4Bny/	.	.	2d/	ce-	.
4F/	-le-	.	.	.	.	4A/	.	.	.	.	.
!	!	!	!	!	!	!LO:TX:t=P:problem=kreska pseudotaktowa	!	!	!	!	!
4E/	.	.	.	.	.	2B/	.	.	2.g/	-le-	.
!LO:TX:t=P:problem=kreska pseudotaktowa	!	!	!	!	!	!	!	!	!	!	!
4D/	.	.	.	.	.	.	.	.	.	.	.
=17-	=17-	=17-	=17-	=17-	=17-	=17-	=17-	=17-	=17-	=17-	=17-
1C	.	.	2.c\	ce-	.	2E/	-bran-	.	.	.	.
.	.	.	.	.	.	.	.	.	4f/	.	.
.	.	.	.	.	.	2G/	.	.	4e/	.	.
!	!	!	!	!	!	!	!	!	!LO:TX:t=P:problem=kreska pseudotaktowa	!	!
.	.	.	4B/	-le-	.	.	.	.	4d/	.	.
2F/	.	.	2A/	.	.	2.A/	-tes	.	2c/	.	.
!	!	!	!LO:TX:t=P:problem=kreska pseudotaktowa	!	!	!	!	!	!	!	!
2D/	-bran-	.	2F/	.	.	.	.	.	1f/	.	.
!	!	!	!	!	!	!LO:TX:t=P:problem=kreska pseudotaktowa	!	!	!	!	!
.	.	.	.	.	.	4B/	.	.	.	.	.
=18-	=18-	=18-	=18-	=18-	=18-	=18-	=18-	=18-	=18-	=18-	=18-
1C	.	.	1G	-bran-	.	1c	.	.	.	.	.
!	!	!	!	!	!	!	!	!	!LO:TX:t=P:problem=kreska pseudotaktowa	!	!
.	.	.	.	.	.	.	.	.	2e/	-bran-	.
!LO:TX:t=P:problem=kreska pseudotaktowa	!	!	!	!	!	!	!	!	!	!	!
1FF	-tes	.	2F/	.	.	2r	.	.	1f,	-tes	.
*	*	*	*	*	*	*custos:B	*	*	*	*	*
!	!	!	!LO:TX:t=P:problem=kreska pseudotaktowa	!	!	!LO:TX:t=P:problem=kreska pseudotaktowa	!	!	!	!	!
.	.	.	2c\	-tes	.	2A/	ſub	.	.	.	.
!	!	!	!	!	!	!LO:LB:g=original	!	!	!	!	!
=19-	=19-	=19-	=19-	=19-	=19-	=19-	=19-	=19-	=19-	=19-	=19-
*	*	*	*	*	*	*xywh-#160:7832,2728,6320,1147	*	*	*	*	*
!LO:TX:t=P:problem=kreska pseudotaktowa	!	!	!	!	!	!	!	!	!	!	!
!	!	!	!	!	!	!	!	!	!LO:TX:t=P:problem=kreska pseudotaktowa	!	!
0r	.	.	2d\	in	ſub	(>2B-X/	ho-	.	1f	in	ſub
.	.	.	1f	ho-	ho-	2F/)	.	.	.	.	.
!	!	!	!	!	!	!LO:TX:t=P:problem=kreska pseudotaktowa	!	!	!	!	!
.	.	.	.	.	.	0c	-no-	.	1g	ho-	ho-
.	.	.	4e\	-no-	-no-	.	.	.	.	.	.
!	!	!	!LO:TX:t=P:problem=kreska pseudotaktowa	!	!	!	!	!	!	!	!
.	.	.	4d\	.	.	.	.	.	.	.	.
=20-	=20-	=20-	=20-	=20-	=20-	=20-	=20-	=20-	=20-	=20-	=20-
*	*	*	*	*	*	*	*	*	*lig	*	*
1C	.	.	1e	-re	-re	.	.	.	1g	-no-	-no-
*	*	*	*	*	*	*	*	*	*col	*	*
2.F/	in	ſub	2f\	.	.	2F/	-re	.	2.a\	.	.
!	!	!	!	!	!	!LO:TX:t=P:problem=kreska pseudotaktowa	!	!	!	!	!
*	*	*	*	*	*ij	*	*	*	*	*	*
.	.	.	2.F/	in	ſub	2f\	Ma-	Be-	.	.	.
*	*	*	*	*	*	*	*	*	*Xlig	*	*
!LO:TX:t=P:problem=kreska pseudotaktowa	!	!	!	!	!	!	!	!	!LO:TX:t=P:problem=kreska pseudotaktowa	!	!
4G/	ho-	ho-	.	.	.	.	.	.	4b\	.	.
*	*	*	*	*	*	*	*	*	*Xcol	*	*
=21-	=21-	=21-	=21-	=21-	=21-	=21-	=21-	=21-	=21-	=21-	=21-
4A/	.	.	.	.	.	2f\	-ri-	-a-	2.cc\	.	.
4B\	.	.	4G/	ho-	ho-	.	.	.	.	.	.
2c\	.	.	4A/	.	.	2.f\	-ae	-ta	.	.	.
!	!	!	!LO:TX:t=P:problem=kreska pseudotaktowa	!	!	!	!	!	!	!	!
.	.	.	4B/	.	.	.	.	.	4b\	.	.
2F/	.	.	2c/	.	.	.	.	.	2a/	.	.
.	.	.	.	.	.	4e\	.	.	.	.	.
2G/	-no-	-no-	2B/	.	.	4d\	.	.	1g\	.	.
!	!	!	!	!	!	!LO:TX:t=P:problem=kreska pseudotaktowa	!	!	!	!	!
.	.	.	.	.	.	4c\	.	.	.	.	.
=22-	=22-	=22-	=22-	=22-	=22-	=22-	=22-	=22-	=22-	=22-	=22-
!LO:TX:t=P:problem=kreska pseudotaktowa	!	!	!LO:TX:t=P:problem=kreska pseudotaktowa	!	!	!	!	!	!	!	!
1D	.	.	1A	-no-	-no-	1d	.	.	.	.	.
!	!	!	!	!	!	!	!	!	!LO:TX:t=P:problem=kreska pseudotaktowa	!	!
.	.	.	.	.	.	.	.	.	2f/	-re	-re
!	!	!	!	!	!	!LO:TX:t=P:problem=kreska pseudotaktowa	!	!	!LO:TX:t=P:problem=kreska pseudotaktowa	!	!
2.GG/	-re[[m]]	-re	2G/	-re	-re	1d	Ma-	.	1g,	.	.
*	*	*	*	*	*Xij	*	*	*	*	*	*
.	.	.	2.D/	.	Ma-	.	.	.	.	.	.
!LO:TX:t=P:problem=kreska pseudotaktowa	!	!	!	!	!	!	!	!	!	!	!
4AA/	.	.	.	.	.	.	.	.	.	.	.
=23-	=23-	=23-	=23-	=23-	=23-	=23-	=23-	=23-	=23-	=23-	=23-
4BB/	.	.	.	.	.	2.d\	-ri-	.	1f	San-	Ma-
4C/	.	.	4E/	san-	-ri-	.	.	.	.	.	.
1D	San-	Ma-	2.F/	.	.	.	.	.	.	.	.
!	!	!	!	!	!	!LO:TX:t=P:problem=kreska pseudotaktowa	!	!	!	!	!
.	.	.	.	.	.	4e\	-ae	.	.	.	.
.	.	.	.	.	.	2f\	.	.	1a	-cto-	-ri-
.	.	.	4G/	.	.	.	.	.	.	.	.
4C/	.	.	1A\	.	.	4e\	.	.	.	.	.
!	!	!	!	!	!	!LO:TX:t=P:problem=kreska pseudotaktowa	!	!	!	!	!
4BB/	-cto-	-ri-	.	.	.	4d\	Vir-	.	.	.	.
=24-	=24-	=24-	=24-	=24-	=24-	=24-	=24-	=24-	=24-	=24-	=24-
*	*	*	*	*	*	*	*	*	*lig	*	*
1AA	.	-ae	.	.	.	1c	-gi-	.	1a	-rum	-ae
.	.	.	4G/	.	.	.	.	.	.	.	.
*	*	*	*custos:E	*	*	*	*	*	*	*	*
!	!	!	!LO:TX:t=P:problem=kreska pseudotaktowa	!	!	!	!	!	!	!	!
.	.	.	4F/	.	.	.	.	.	.	.	.
*custos:D	*	*	*	*	*	*	*	*	*	*	*
*	*	*	*	*	*	*	*	*	*custos:dd	*	*
!	!	!	!LO:LB:g=original	!	!	!	!	!	!	!	!
!LO:TX:t=P:problem=kreska pseudotaktowa	!	!	!	!	!	!	!	!	!	!	!
*	*	*	*	*	*	*	*	*	*	*	*
*	*	*	*xywh-#262:7736,472,6459,1320	*	*	*	*	*	*	*	*
1AA	-rum	.	1E	-cto-	-rae	1A	.	.	1cc	.	.
*	*	*	*	*	*	*	*	*	*Xlig	*	*
!LO:LB:g=original	!	!	!	!	!	!	!	!	!LO:LB:g=original	!	!
=25-	=25-	=25-	=25-	=25-	=25-	=25-	=25-	=25-	=25-	=25-	=25-
*xywh-#360:7747,1445,6450,1266	*	*	*	*	*	*	*	*	*	*	*
*	*	*	*	*	*	*	*	*	*xywh-#57:7876,3753,6463,1404	*	*
!	!	!	!	!	!	!	!	!	!LO:TX:t=P:problem=kreska pseudotaktowa	!	!
2.D/	.	.	2D/	-rum	.	2F/	-nis	.	1dd	.	.
.	.	.	2.A/	.	.	1f	Vir-	[[de	.	.	.
!LO:TX:t=P:problem=kreska pseudotaktowa	!	!	!	!	!	!	!	!	!	!	!
4E/	.	.	.	.	.	.	.	.	.	.	.
4F/	.	.	.	.	.	.	.	.	1a	o-	Vir-
4G\	.	.	4B/	.	.	.	.	.	.	.	.
!LO:TX:t=P:problem=kreska pseudotaktowa	!	!	!LO:TX:t=P:problem=kreska pseudotaktowa	!	!	!	!	!	!	!	!
2A\	.	.	2c/	om-	Vir-	4e\	.	cu-	.	.	.
!	!	!	!	!	!	!LO:TX:t=P:problem=kreska pseudotaktowa	!	!	!	!	!
.	.	.	.	.	.	4f\	.	-ius	.	.	.
=26-	=26-	=26-	=26-	=26-	=26-	=26-	=26-	=26-	=26-	=26-	=26-
2G\	om-	Vir-	2d/	.	.	1.g	.	.	2b\	-mni-	.
1C	.	-gi-	1e	.	.	.	.	.	2.cc\	.	.
.	.	.	.	.	.	.	.	.	4b\	.	.
!LO:TX:t=P:problem=kreska pseudotaktowa	!	!	!	!	!	!	!	!	!	!	!
2D/	-ni-	.	4d/	.	-gi-	2f\	-gi-	.	1a\	.	-gi-
!	!	!	!LO:TX:t=P:problem=kreska pseudotaktowa	!	!	!	!	!	!	!	!
.	.	.	4c/	.	.	.	.	.	.	.	.
=27-	=27-	=27-	=27-	=27-	=27-	=27-	=27-	=27-	=27-	=27-	=27-
1E	-um	-nis	1B	-ni-	-nis	1e	-nis	.	.	.	.
.	.	.	.	.	.	.	.	.	2g/	-um	-nis
!LO:TX:t=P:problem=kreska pseudotaktowa	!	!	!LO:TX:t=P:problem=kreska pseudotaktowa	!	!	!LO:TX:t=P:problem=kreska pseudotaktowa	!	!	!LO:TX:t=P:problem= kreska pseudotaktowa	!	!
1AA	.	.	1A	-um	.	0c	.	.	0a	.	.
=28-	=28-	=28-	=28-	=28-	=28-	=28-	=28-	=28-	=28-	=28-	=28-
!LO:TX:a:t=9.	!	!	!	!	!	!	!	!	!	!	!
0r	.	.	2r	.	.	.	.	.	.	.	.
.	.	.	1F	de	de	.	.	.	.	.	.
.	.	.	.	.	.	2r	.	.	1r	.	.
!	!	!	!LO:TX:t=P:problem=kreska pseudotaktowa	!	!	!LO:TX:t=P:problem=kreska pseudotaktowa	!	!	!	!	!
.	.	.	2G/	.	.	2d\	De	aſ-	.	.	.
=29-	=29-	=29-	=29-	=29-	=29-	=29-	=29-	=29-	=29-	=29-	=29-
*	*	*	*	*	*	*	*	*	*lig	*	*
0r	.	.	2A/	quo-	.	2c/	.	-ſum-	1f	De	De
.	.	.	2.B-X/	.	cu-	2.d/	cu-	-pti-	.	.	.
!	!	!	!	!	!	!	!	!	!LO:TX:t=P:problem=kreska pseudotaktowa	!	!
.	.	.	.	.	.	.	.	.	1g	.	.
.	.	.	4A/	.	.	4c/	.	.	.	.	.
*	*	*	*	*	*	*custos:c	*	*	*	*	*
!	!	!	!LO:TX:t=P:problem=kreska pseudotaktowa	!	!	!LO:TX:t=P:problem=kreska pseudotaktowa	!	!	!	!	!
.	.	.	2G/	.	.	2B-X/	.	.	.	.	.
*	*	*	*	*	*	*	*	*	*Xlig	*	*
!	!	!	!	!	!	!LO:LB:g=original	!	!	!	!	!
=30-	=30-	=30-	=30-	=30-	=30-	=30-	=30-	=30-	=30-	=30-	=30-
*	*	*	*	*	*	*xywh-#160:7812,3564,6286,1493	*	*	*	*	*
*	*	*	*	*	*	*	*	*	*lig	*	*
0r	.	.	2A/	-rum	-ius	2c/	-i(us)	-o-	1f	quo-	cu-
.	.	.	1Bny	.	.	1d,	.	-ne	.	.	.
.	.	.	.	.	.	.	.	.	1g	.	.
!	!	!	!LO:TX:t=P:problem=kreska pseudotaktowa	!	!	!LO:TX:t=P:problem=kreska pseudotaktowa	!	!	!	!	!
.	.	.	2G/	.	.	2Bny/	aſ-	gau-	.	.	.
*	*	*	*	*	*	*	*	*	*Xlig	*	*
=31-	=31-	=31-	=31-	=31-	=31-	=31-	=31-	=31-	=31-	=31-	=31-
0r	.	.	2A/	.	.	2c/	-ſum-	.	2f/	-rum	-ius
!	!	!	!	!	!	!	!	!	!LO:TX:t=P:problem=kreska pseudotaktowa	!	!
.	.	.	2B/	.	.	2d/	-pti-	-dent	2f/	So-	aſ-
.	.	.	2A/	.	.	2c/	-o-	.	1f	-lem-	-ſum-
!	!	!	!LO:TX:t=P:problem=kreska pseudotaktowa	!	!	!	!	!	!	!	!
.	.	.	2F/	so-	aſ-	1f\	.	An-	.	.	.
=32-	=32-	=32-	=32-	=32-	=32-	=32-	=32-	=32-	=32-	=32-	=32-
!LO:TX:t=P:problem=kreska pseudotaktowa	!	!	!	!	!	!	!	!	!	!	!
1r	.	.	0c	-lem-	-sum-	.	.	.	1g	-ni-	-pti-
.	.	.	.	.	.	4e\	.	-ge-	.	.	.
!	!	!	!	!	!	!LO:TX:t=P:problem=kreska pseudotaktowa	!	!	!	!	!
.	.	.	.	.	.	4d\	.	-li]]	.	.	.
!LO:TX:t=P:problem=kreska pseudotaktowa	!	!	!	!	!	!	!	!	!LO:TX:t=P:problem=kreska pseudotaktowa	!	!
1C	So-	aſ-	.	.	.	1e	.	.	1g	.	-o-
=33-	=33-	=33-	=33-	=33-	=33-	=33-	=33-	=33-	=33-	=33-	=33-
!	!	!	!	!	!	!LO:TX:t=P:problem=kreska pseudotaktowa	!	!	!	!	!
1F	-lem-	-ſum-	2F/	-ni-	-pti-	0f	-ne	.	2.a/	-ta-	.
.	.	.	2.c/	-ta-	-o-	.	.	.	.	.	.
.	.	.	.	.	.	.	.	.	4b\	.	.
2F\	.	-pti-	.	.	.	.	.	.	2.cc\	.	.
.	.	.	4B/	.	.	.	.	.	.	.	.
1F\	-ni-	.	4A/	.	.	.	.	.	.	.	.
*	*	*	*custos:F	*	*	*	*	*	*	*	*
!	!	!	!LO:TX:t=P:problem=kreska pseudotaktowa	!	!	!	!	!	!LO:TX:t=P:problem=kreska pseudotaktowa	!	!
.	.	.	4G/	.	.	.	.	.	4b/	.	.
!	!	!	!LO:LB:g=original	!	!	!	!	!	!	!	!
=34-	=34-	=34-	=34-	=34-	=34-	=34-	=34-	=34-	=34-	=34-	=34-
*	*	*	*xywh-#262:7807,1434,6279,995	*	*	*	*	*	*	*	*
.	.	.	2F/	-ta-	.	2r	.	.	2a/	.	.
!LO:TX:t=P:problem=kreska pseudotaktowa	!	!	!LO:TX:t=P:problem=kreska pseudotaktowa	!	!	!LO:TX:t=P:problem=kreska pseudotaktowa	!	!	!	!	!
2E/	-ta-	-o-	2G/	-te	-ne	2c/	gau-	.	1g	.	.
!LO:TX:t=P:problem=kreska pseudotaktowa	!	!	!	!	!	!	!	!	!	!	!
1D	-te	-ne	1A	.	.	2d\	-dent	.	.	.	.
.	.	.	.	.	.	1f\	.	.	2f/	.	.
=35-	=35-	=35-	=35-	=35-	=35-	=35-	=35-	=35-	=35-	=35-	=35-
!	!	!	!	!	!	!	!	!	!LO:TX:t=P:problem=kreska pseudotaktowa	!	!
2r	.	.	2.c\	.	.	.	.	.	1g	-te	-ne
!	!	!	!	!	!	!LO:TX:t=P:problem=kreska pseudotaktowa	!	!	!	!	!
2C/	Gau-	.	.	.	.	2e\	.	.	.	.	.
!	!	!	!LO:TX:t=P:problem=kreska pseudotaktowa	!	!	!	!	!	!	!	!
.	.	.	4B/	.	.	.	.	.	.	.	.
*	*	*	*	*	*	*	*	*	*lig	*	*
2D/	.	.	1A	.	.	2f\	.	.	1f	gau-	.
1F\	-dent	.	.	.	.	2d/	.	.	.	.	.
=36-	=36-	=36-	=36-	=36-	=36-	=36-	=36-	=36-	=36-	=36-	=36-
!	!	!	!LO:TX:t=P:problem=kreska pseudotaktowa	!	!	!LO:TX:t=P:problem=kreska pseudotaktowa	!	!	!	!	!
.	.	.	1G	.	.	1c	An-	.	1g	.	.
!LO:TX:t=P:problem=kreska pseudotaktowa	!	!	!	!	!	!	!	!	!	!	!
2E\	.	.	.	.	.	.	.	.	.	.	.
*	*	*	*	*	*	*	*	*	*Xlig	*	*
*	*	*	*	*	*	*	*	*	*custos:f	*	*
!	!	!	!	!	!	!	!	!	!LO:TX:t=P:problem=kreska pseudotaktowa	!	!
2F\	.	.	2r	.	.	1.A	-ge-	.	1f	-dent	.
1F\	.	.	2c\	gau-	.	.	.	.	.	.	.
!	!	!	!	!	!	!	!	!	!LO:PB:g=original	!	!
=37-	=37-	=37-	=37-	=37-	=37-	=37-	=37-	=37-	=37-	=37-	=37-
*	*	*	*	*	*	*	*	*	*xywh-#58:1341,498,6555,1194	*	*
*	*	*	*	*	*	*	*	*	*lig	*	*
.	.	.	2d\	.	.	.	.	.	1f	an-	.
4E/	.	.	1f	.	.	2F/	-li	.	.	.	.
!LO:TX:t=P:problem=kreska pseudotaktowa	!	!	!	!	!	!	!	!	!	!	!
4D/	.	.	.	.	.	.	.	.	.	.	.
!	!	!	!	!	!	!LO:TX:t=P:problem=kreska pseudotaktowa	!	!	!	!	!
1C	.	.	.	.	.	0.c	.	.	1g	.	.
!	!	!	!LO:TX:t=P:problem=kreska pseudotaktowa	!	!	!	!	!	!	!	!
.	.	.	2e\	-dent	.	.	.	.	.	.	.
*	*	*	*	*	*	*	*	*	*Xlig	*	*
=38-	=38-	=38-	=38-	=38-	=38-	=38-	=38-	=38-	=38-	=38-	=38-
*	*	*	*	*	*	*	*	*	*lig	*	*
2FF,/	.	.	2f\	.	.	.	.	.	1a	.	.
1F	an-	.	2F/	.	.	.	.	.	.	.	.
!	!	!	!LO:TX:t=P:problem=kreska pseudotaktowa	!	!	!	!	!	!LO:TX:t=P:problem=kreska pseudotaktowa	!	!
.	.	.	1G	an-	.	.	.	.	1g	.	.
*custos:F	*	*	*	*	*	*	*	*	*	*	*
!LO:TX:t=P:problem=kreska pseudotaktowa	!	!	!	!	!	!	!	!	!	!	!
2E\	-ge-	.	.	.	.	.	.	.	.	.	.
*	*	*	*	*	*	*	*	*	*Xlig	*	*
=39-	=39-	=39-	=39-	=39-	=39-	=39-	=39-	=39-	=39-	=39-	=39-
*xywh-#360:7795,2414,6319,982	*	*	*	*	*	*	*	*	*	*	*
2F/	.	.	2F/	.	.	2r	.	.	1a	.	.
!LO:TX:t=P:problem=kreska pseudotaktowa	!	!	!	!	!	!LO:TX:t=P:problem=kreska pseudotaktowa	!	!	!	!	!
2FF/	.	.	2.c\	.	.	2c/	gau-	.	.	.	.
2C/	.	.	.	.	.	2G/	-dent	.	2g/	.	.
.	.	.	4B/	.	.	.	.	.	.	.	.
!LO:TX:t=P:problem=kreska pseudotaktowa	!	!	!LO:TX:t=P:problem=kreska pseudotaktowa	!	!	!	!	!	!	!	!
2FF/	.	.	2A/	.	.	1c\	An-	.	1f/	-ge-	.
=40-	=40-	=40-	=40-	=40-	=40-	=40-	=40-	=40-	=40-	=40-	=40-
1C	-li	.	1G	-ge-	.	.	.	.	.	.	.
.	.	.	.	.	.	2c/	-ge-	.	2e/	-li	.
!	!	!	!LO:TX:t=P:problem=kreska pseudotaktowa	!	!	!LO:TX:t=P:problem=kreska pseudotaktowa	!	!	!LO:TX:t=P:problem=kreska pseudotaktowa	!	!
2FF/	.	.	1F	-li	.	1A	-li	.	1f	et	.
2.F\	et	.	.	.	.	.	.	.	.	.	.
=41-	=41-	=41-	=41-	=41-	=41-	=41-	=41-	=41-	=41-	=41-	=41-
.	.	.	2r	.	.	2r	.	.	1f	co-	.
4E/	.	.	.	.	.	.	.	.	.	.	.
!LO:TX:t=P:problem=kreska pseudotaktowa	!	!	!	!	!	!	!	!	!	!	!
2F/	.	.	2A/	et	.	2.c/	et	.	.	.	.
2C/	co-	.	2G/	co-	.	.	.	.	1g	-lau-	.
.	.	.	.	.	.	4d/	.	.	.	.	.
2.C/	-lau-	.	1c\	-lau-	.	4e\	.	.	.	.	.
!	!	!	!	!	!	!LO:TX:t=P:problem=kreska pseudotaktowa	!	!	!	!	!
.	.	.	.	.	.	4f\	.	.	.	.	.
=42-	=42-	=42-	=42-	=42-	=42-	=42-	=42-	=42-	=42-	=42-	=42-
!	!	!	!	!	!	!	!	!	!LO:TX:t=P:problem=kreska pseudotaktowa	!	!
.	.	.	.	.	.	4g\	.	.	1g	.	.
4D/	-dant	.	.	.	.	4f\	.	.	.	.	.
!LO:TX:t=P:problem=kreska pseudotaktowa	!	!	!LO:TX:t=P:problem=kreska pseudotaktowa	!	!	!	!	!	!	!	!
2E/	.	.	2B\	.	.	4e\	.	.	.	.	.
*	*	*	*	*	*	*custos:c	*	*	*	*	*
!	!	!	!	!	!	!LO:TX:t=P:problem=kreska pseudotaktowa	!	!	!	!	!
.	.	.	.	.	.	4d/	.	.	.	.	.
!	!	!	!	!	!	!LO:PB:g=original	!	!	!	!	!
*	*	*	*	*	*	*xywh-#161:1389,414,6348,1196	*	*	*	*	*
1F	.	.	1A	-dant	.	2c/	.	.	2a\	.	.
!	!	!	!	!	!	!LO:TX:t=P:problem=kreska pseudotaktowa	!	!	!	!	!
.	.	.	.	.	.	2f/	.	.	1cc\	.	.
=43-	=43-	=43-	=43-	=43-	=43-	=43-	=43-	=43-	=43-	=43-	=43-
2C/	.	.	1G	.	.	2e/	col-	.	.	.	.
!LO:TX:t=P:problem=kreska pseudotaktowa	!	!	!	!	!	!	!	!	!LO:TX:t=P:problem=kreska pseudotaktowa	!	!
2G\	fi-	.	.	.	.	4d/	-lau-	.	2b/	-dant	.
!	!	!	!	!	!	!LO:TX:t=P:problem=kreska pseudotaktowa	!	!	!	!	!
.	.	.	.	.	.	4e/	.	.	.	.	.
2F\	-li-	.	2A/	.	.	4f/	.	.	2a/	.	.
.	.	.	.	.	.	4e/	.	.	.	.	.
*	*	*	*custos:A	*	*	*	*	*	*	*	*
!	!	!	!LO:TX:t=P:problem=kreska pseudotaktowa	!	!	!	!	!	!	!	!
2G\	.	.	2B-X/	fi-	.	4d/	.	.	1g\	.	.
.	.	.	.	.	.	4c/	.	.	.	.	.
!	!	!	!LO:LB:g=original	!	!	!	!	!	!	!	!
=44-	=44-	=44-	=44-	=44-	=44-	=44-	=44-	=44-	=44-	=44-	=44-
*	*	*	*xywh-#262:7739,2285,6279,947	*	*	*	*	*	*	*	*
!LO:TX:t=P:problem=kreska pseudotaktowa	!	!	!	!	!	!	!	!	!	!	!
1D	-li-	.	1A	-li-	.	1.d	.	.	.	.	.
.	.	.	.	.	.	.	.	.	2f/	.	.
!	!	!	!LO:TX:t=P:problem=kreska pseudotaktowa	!	!	!	!	!	!	!	!
*	*	*	*	*	*	*	*	*	*lig	*	*
2GG,/	-um	.	1G	-um	.	.	.	.	1g	fi-	.
!	!	!	!	!	!	!LO:TX:t=P:problem=kreska pseudotaktowa	!	!	!	!	!
1G\	.	.	.	.	.	2e\	.	.	.	.	.
=45-	=45-	=45-	=45-	=45-	=45-	=45-	=45-	=45-	=45-	=45-	=45-
!	!	!	!	!	!	!	!	!	!LO:TX:t=P:problem=kreska pseudotaktowa	!	!
.	.	.	2r	.	.	1f	.	.	1a	.	.
2F\	.	.	2c/	fi-	.	.	.	.	.	.	.
!LO:TX:t=P:problem=kreska pseudotaktowa	!	!	!	!	!	!	!	!	!	!	!
*	*	*	*	*	*	*	*	*	*Xlig	*	*
!	!	!	!LO:TX:t=P:problem=kreska pseudotaktowa	!	!	!	!	!	!	!	!
1G	fi-	.	1Bny	.	.	1d	.	.	1g	.	.
=46-	=46-	=46-	=46-	=46-	=46-	=46-	=46-	=46-	=46-	=46-	=46-
!	!	!	!	!	!	!LO:TX:t=P:problem=kreska pseudotaktowa	!	!	!	!	!
*	*	*	*	*	*	*	*	*	*lig	*	*
1D	-li-	.	2A/	-li-	.	1d	-dant	.	1f	-li-	.
.	.	.	1d	.	.	.	.	.	.	.	.
1E	-um	.	.	.	.	2r	.	.	1g	.	.
!	!	!	!LO:TX:t=P:problem=kreska pseudotaktowa	!	!	!	!	!	!	!	!
.	.	.	2c/	-um	.	2G/	fi-	.	.	.	.
*	*	*	*	*	*	*	*	*	*Xlig	*	*
=47-	=47-	=47-	=47-	=47-	=47-	=47-	=47-	=47-	=47-	=47-	=47-
*custos:D	*	*	*	*	*	*	*	*	*	*	*
!LO:TX:t=P:problem=kreska pseudotaktowa	!	!	!LO:TX:t=P:problem=kreska pseudotaktowa	!	!	!	!	!	!LO:TX:t=P:problem=kreska pseudotaktowa	!	!
1D	.	.	1d	.	.	2A/	-li-	.	0f	-um	.
!	!	!	!	!	!	!LO:TX:t=P:problem=kreska pseudotaktowa	!	!	!	!	!
.	.	.	.	.	.	2B-X/	.	.	.	.	.
!LO:LB:g=original	!	!	!	!	!	!	!	!	!	!	!
*xywh-#360:7844,3217,6333,892	*	*	*	*	*	*	*	*	*	*	*
2D,/	.	.	2A/	.	.	2A/	.	.	.	.	.
2.A\	.	.	2.c/	de-	.	2F/	-um	.	.	.	.
=48-	=48-	=48-	=48-	=48-	=48-	=48-	=48-	=48-	=48-	=48-	=48-
.	.	.	.	.	.	2c/	.	.	2r	.	.
4G\	.	.	4B/	-i	.	.	.	.	.	.	.
4F\	de-	.	4A/	.	.	2.A/	.	.	2a/	de-	.
!LO:TX:t=P:problem=kreska pseudotaktowa	!	!	!LO:TX:t=P:problem=kreska pseudotaktowa	!	!	!	!	!	!	!	!
4E\	-i	.	4G/	.	.	.	.	.	.	.	.
2D/	.	.	2F/	.	.	.	.	.	2a/	.	.
.	.	.	.	.	.	4Bny/	de-	.	.	.	.
2.AA/	.	.	2E/	.	.	4c/	.	.	2.cc\	.	.
!	!	!	!	!	!	!LO:TX:t=P:problem=kreska pseudotaktowa	!	!	!	!	!
.	.	.	.	.	.	4d/	.	.	.	.	.
=49-	=49-	=49-	=49-	=49-	=49-	=49-	=49-	=49-	=49-	=49-	=49-
.	.	.	1A	.	.	1e	.	.	.	.	.
4GG/	.	.	.	.	.	.	.	.	4b/	.	.
4AA/	.	.	.	.	.	.	.	.	4a/	.	.
!LO:TX:t=P:problem=kreska pseudotaktowa	!	!	!	!	!	!	!	!	!LO:TX:t=P:problem=kreska pseudotaktowa	!	!
4BB/	.	.	.	.	.	.	.	.	4g/	.	.
2C/	.	.	2G/	.	.	2A/	.	.	4cc\	.	.
.	.	.	.	.	.	.	.	.	4b/	.	.
!	!	!	!LO:TX:t=P:problem=kreska pseudotaktowa	!	!	!	!	!	!	!	!
2D/	.	.	2F/	.	.	1d\	.	.	4a/	.	.
.	.	.	.	.	.	.	.	.	4g/	.	.
=50-	=50-	=50-	=50-	=50-	=50-	=50-	=50-	=50-	=50-	=50-	=50-
*	*	*	*	*	*	*	*	*	*custos:f	*	*
!	!	!	!	!	!	!	!	!	!LO:TX:t=P:problem=kreska pseudotaktowa	!	!
1AA	.	.	1E	.	.	.	.	.	1a	.	.
.	.	.	.	.	.	2c/	-i	.	.	.	.
!LO:TX:t=P:problem=kreska pseudotaktowa	!	!	!	!	!	!	!	!	!LO:TX:t=P:problem=kreska pseudotaktowa	!	!
!	!	!	!	!	!	!LO:TX:t=P:problem=symbol nad nutą	!	!	!LO:LB:g=original	!	!
*	*	*	*	*	*	*	*	*	*xywh-#58:1495,1451,6298,972	*	*
1D	.	.	1D	.	.	00d	.	.	1f	-i	.
=51-	=51-	=51-	=51-	=51-	=51-	=51-	=51-	=51-	=51-	=51-	=51-
2r	.	.	2r	.	.	.	.	.	2r	.	.
!	!	!	!LO:TX:t=P:problem=kreska pseudotaktowa	!	!	!	!	!	!	!	!
2D/	de-	.	2F/	.	.	.	.	.	2a/	de-	.
2GG/	-i	.	2G/	.	.	.	.	.	2b\	.	.
!LO:TX:t=P:problem=kreska pseudotaktowa	!	!	!	!	!	!	!	!	!LO:TX:t=P:problem=kreska pseudotaktowa	!	!
2D/	.	.	2A/	.	.	.	.	.	2a/	.	.
=52-	=52-	=52-	=52-	=52-	=52-	=52-	=52-	=52-	=52-	=52-	=52-
2GG/	.	.	2B-X/	.	.	.	.	.	2g/	.	.
!	!	!	!LO:TX:t=P:problem=kreska pseudotaktowa	!	!	!	!	!	!	!	!
2D/	.	.	2A/	.	.	.	.	.	2f/	.	.
1GG	.	.	1G	.	.	0.dyy	.	.	1b	-i	.
=53-	=53-	=53-	=53-	=53-	=53-	=53-	=53-	=53-	=53-	=53-	=53-
*custos:FF	*	*	*custos:F	*	*	*custos:B	*	*	*	*	*
!LO:N:vis=00	!	!	!LO:N:vis=00	!	!	!	!	!	!LO:N:vis=00	!	!
0D	.	.	0F	.	.	.	.	.	0a	.	.
!LO:LB:g=original	!	!	!LO:LB:g=original	!	!	!LO:LB:g=original	!	!	!	!	!
=54||-	=54||-	=54||-	=54||-	=54||-	=54||-	=54||-	=54||-	=54||-	=54||-	=54||-	=54||-
*k[b-]	*	*	*k[b-]	*	*	*k[b-]	*	*	*k[b-]	*	*
*M2/1	*	*	*M2/1	*	*	*M2/1	*	*	*M2/1	*	*
*met(C|)	*	*	*met(C|)	*	*	*met(C|)	*	*	*met(C|)	*	*
*xywh-#360:7858,3868,6277,1508	*	*	*xywh-#262:7787,2935,6313,1106	*	*	*xywh-#161:1430,1286,6334,1134	*	*	*	*	*
!	!	!	!	!	!	!LO:TX:t=P:problem=kreska pseudotaktowa	!	!	!	!	!
0r	.	.	1F	E-	E-	1r	.	.	0r	.	.
!	!	!	!LO:TX:t=P:problem=kreska pseudotaktowa	!	!	!	!	!	!	!	!
.	.	.	1G	-xul-	-ruc-	1B-	E-	E-	.	.	.
=55-	=55-	=55-	=55-	=55-	=55-	=55-	=55-	=55-	=55-	=55-	=55-
0r	.	.	2A/	-ta-	-ta-	2c/	-xul-	-ru-	1f	E-	E-
.	.	.	1B-	.	.	1d	-ta-	-cta-	.	.	.
!	!	!	!	!	!	!	!	!	!LO:TX:t=P:problem=kreska pseudotaktowa	!	!
.	.	.	.	.	.	.	.	.	1g	-xul-	-ru-
.	.	.	1c\	.	.	1e\	-ti	.	.	.	.
=56-	=56-	=56-	=56-	=56-	=56-	=56-	=56-	=56-	=56-	=56-	=56-
0r	.	.	.	.	.	.	.	.	2a\	.	-cta-
.	.	.	1d	.	.	1f	.	.	2.b-\	.	-vit
.	.	.	.	.	.	.	.	.	4a/	.	.
!	!	!	!LO:TX:t=P:problem=kreska pseudotaktowa	!	!	!LO:TX:t=P:problem=kreska pseudotaktowa	!	!	!	!	!
.	.	.	2c/	.	.	2e\	.	.	1a\	.	cor
=57-	=57-	=57-	=57-	=57-	=57-	=57-	=57-	=57-	=57-	=57-	=57-
!LO:TX:t=P:problem=kreska pseudotaktowa	!	!	!	!	!	!	!	!	!	!	!
1r	.	.	1B-	.	.	1d	.	.	.	.	.
!	!	!	!	!	!	!	!	!	!LO:TX:t=P:problem=kreska pseudotaktowa	!	!
.	.	.	.	.	.	.	.	.	2g/	.	.
1FF	E-	E-	4A/	.	.	2.c/	.	.	2a/	.	.
.	.	.	4G/	-te	-vit	.	.	.	.	.	.
.	.	.	4F/	.	.	.	.	.	1cc\	-ta-	me-
!	!	!	!LO:TX:t=P:problem=kreska pseudotaktowa	!	!	!	!	!	!	!	!
.	.	.	4E/	.	.	8B-/L	.	.	.	.	.
!	!	!	!	!	!	!LO:TX:t=P:problem=kreska pseudotaktowa	!	!	!	!	!
.	.	.	.	.	.	8A/J	.	.	.	.	.
=58-	=58-	=58-	=58-	=58-	=58-	=58-	=58-	=58-	=58-	=58-	=58-
*lig	*	*	*	*	*	*	*	*	*	*	*
1GG	-xul-	-ru-	1D	.	.	1G	iu-	.	.	.	.
.	.	.	.	.	.	.	.	.	2b-\	-te	-um
!	!	!	!	!	!	!	!	!	!LO:TX:t=P:problem=kreska pseudotaktowa	!	!
1AA	.`	.	2C/	.	.	2E/	ſti	-vit	1cc	.	.
.	.	.	2.c\	iu-	cor	2.e\	.	.	.	.	.
*Xlig	*	*	*	*	*	*	*	*	*	*	*
=59-	=59-	=59-	=59-	=59-	=59-	=59-	=59-	=59-	=59-	=59-	=59-
1AA	-ta-	-cta-	.	.	.	.	.	.	2r	.	.
.	.	.	4B-\	-ſti	.	4d/	.	.	.	.	.
.	.	.	4A/	.	.	4c/	-in	cor	2.cc\	iu-	Ver-
!	!	!	!LO:TX:t=P:problem=kreska pseudotaktowa	!	!	!LO:TX:t=P:problem=kreska pseudotaktowa	!	!	!	!	!
.	.	.	4G/	.	.	4B-/	.	.	.	.	.
!LO:TX:t=P:problem=kreska pseudotaktowa	!	!	!	!	!	!	!	!	!	!	!
1AA	-te	-vit	2A/	.	.	1c	.	.	.	.	.
.	.	.	.	.	.	.	.	.	4b-\	ſti	.
.	.	.	2E/	.	me-	.	.	.	4a\	.	.
!	!	!	!	!	!	!	!	!	!LO:TX:t=P:problem=kreska pseudotaktowa	!	!
.	.	.	.	.	.	.	.	.	4g\	.	-bu(m)
=60-	=60-	=60-	=60-	=60-	=60-	=60-	=60-	=60-	=60-	=60-	=60-
*lig	*	*	*	*	*	*	*	*	*	*	*
!	!	!	!LO:TX:t=P:problem=kreska pseudotaktowa	!	!	!	!	!	!	!	!
1AA	iuſ-	cor	1A	.	.	1c	.	.	2a\	.	bo-
.	.	.	.	.	.	.	.	.	2.e/	.	.
1C	.	.	2G/	.	.	2.c\	.	me-	.	.	.
.	.	.	.	.	.	.	.	.	4f/	.	.
*	*	*	*	*	*	*	*	*	*custos:a	*	*
.	.	.	2.c\	in	-um	.	.	.	2g/	.	.
!	!	!	!	!	!	!LO:TX:t=P:problem=kreska pseudotaktowa	!	!	!	!	!
.	.	.	.	.	.	4d\	.	.	.	.	.
*Xlig	*	*	*	*	*	*	*	*	*	*	*
!	!	!	!	!	!	!	!	!	!LO:LB:g=original	!	!
=61-	=61-	=61-	=61-	=61-	=61-	=61-	=61-	=61-	=61-	=61-	=61-
*	*	*	*	*	*	*	*	*	*xywh-#58:1474,2132,6382,1173	*	*
!	!	!	!	!	!	!	!	!	!LO:TX:t=P:problem=kreska pseudotaktowa	!	!
2.AA/	-ti	me-	.	.	.	2e\	.	.	1a	.	-nu(m)
.	.	.	4B-/	.	.	.	.	.	.	.	.
*	*	*	*custos:G	*	*	*	*	*	*	*	*
!	!	!	!LO:TX:t=P:problem=kreska pseudotaktowa	!	!	!	!	!	!	!	!
.	.	.	2A/	.	Ver-	1E	.	.	.	.	.
!LO:TX:t=P:problem=kreska pseudotaktowa	!	!	!LO:LB:g=original	!	!	!	!	!	!	!	!
4BB-/	.	-u(m)	.	.	.	.	.	.	.	.	.
*	*	*	*xywh-#262:7849,3730,6473,1618	*	*	*	*	*	*	*	*
2C/	.	Ver-	4G/	.	-bum	.	.	.	1r	.	.
.	.	.	4A/	.	.	.	.	.	.	.	.
1D\	in	.	1B-\	.	.	2.F/	.	.	.	.	.
=62-	=62-	=62-	=62-	=62-	=62-	=62-	=62-	=62-	=62-	=62-	=62-
.	.	.	.	.	.	.	.	.	2r	.	.
.	.	.	.	.	.	4E/	do-	-um	.	.	.
!	!	!	!	!	!	!	!	!	!LO:TX:t=P:problem=kreska pseudotaktowa	!	!
2C/	do-	-bu(m)	1A	do-	bo-	1E	.	.	2a/	in	Di-
1BB-	-mi-	bo-	.	.	.	.	.	.	1dd	do-	-co
!	!	!	!	!	!	!LO:TX:a:t=vide in fine [?]	!	!	!	!	!
!	!	!	!LO:TX:t=P:problem=kreska pseudotaktowa	!	!	!LO:TX:t=P:problem=kreska pseudotaktowa	!	!	!	!	!
!	!	!	!	!	!	!LO:TX:t=P:problem=następny fragment w innym miejscu, od znaku	!	!	!	!	!
.	.	.	2G/	-mi-	-nu(m)	2D/	.	ver-	.	.	.
=63-	=63-	=63-	=63-	=63-	=63-	=63-	=63-	=63-	=63-	=63-	=63-
!LO:TX:t=P:problem=kreska pseudotaktowa	!	!	!	!	!	!LO:TX:a:t=P:problem=skan 161 po prawej u dołu	!	!	!	!	!
!	!	!	!	!	!	!LO:TX:a:t=de.	!	!	!	!	!
1AA	-(n)o	-nu(m)	2A/	-no.	.	2E/	.	.	2cc\	.	.
!	!	!	!LO:TX:t=P:problem=kreska pseudotaktowa	!	!	!LO:TX:t=P:problem=kreska pseudotaktowa	!	!	!	!	!
.	.	.	2c/	.	.	2e\	.	.	2.a\	-mi-	e-
1r	.	.	2d\	.	di-	2f\	.	.	.	.	.
.	.	.	.	.	.	.	.	.	4g/	.	.
.	.	.	1f\	Re-	-co	1d\	.	.	4f/	.	.
!	!	!	!	!	!	!	!	!	!LO:TX:t=P:problem=kreska pseudotaktowa	!	!
.	.	.	.	.	.	.	.	.	4e/	.	.
=64-	=64-	=64-	=64-	=64-	=64-	=64-	=64-	=64-	=64-	=64-	=64-
!LO:TX:t=P:problem=kreska pseudotaktowa	!	!	!	!	!	!	!	!	!	!	!
0r	.	.	.	.	.	.	.	.	4d/	.	.
.	.	.	.	.	.	.	.	.	4e/	.	.
.	.	.	4e\	-cto	.	4c/	.	.	4f/	.	.
!	!	!	!LO:TX:t=P:problem=kreska pseudotaktowa	!	!	!LO:TX:t=P:problem=kreska pseudotaktowa	!	!	!LO:TX:t=P:problem=kreska pseudotaktowa	!	!
.	.	.	4d\	.	.	4B-/	.	.	4g/	.	.
.	.	.	2c\	.	e-	2A/	.	.	4a/	.	.
.	.	.	.	.	.	.	.	.	4b-/	.	.
.	.	.	1f\	.	.	2F/	.	.	4cc\	.	.
!	!	!	!	!	!	!	!	!	!LO:TX:t=P:problem=kreska pseudotaktowa	!	!
.	.	.	.	.	.	.	.	.	4a\	.	.
=65-	=65-	=65-	=65-	=65-	=65-	=65-	=65-	=65-	=65-	=65-	=65-
*lig	*	*	*	*	*	*	*	*	*	*	*
1GG	Rec-	di-	.	.	.	1G	.	.	1b-	-no	-go
!	!	!	!LO:TX:t=P:problem=kreska pseudotaktowa	!	!	!	!	!	!	!	!
.	.	.	2e\	.	.	.	.	.	.	.	.
!	!	!	!	!	!	!LO:TX:t=P:problem=kreska pseudotaktowa	!	!	!	!	!
1FF	.	.	2.f\	.	-go	1A	.	.	2a\	.	o-
.	.	.	.	.	.	.	.	.	1cc\	re-	-pe-
.	.	.	4e\	.	o-	.	.	.	.	.	.
*Xlig	*	*	*	*	*	*	*	*	*	*	*
=66-	=66-	=66-	=66-	=66-	=66-	=66-	=66-	=66-	=66-	=66-	=66-
*lig	*	*	*	*	*	*	*	*	*	*	*
!	!	!	!	!	!	!LO:TX:t=[sc-below]	!	!	!	!	!
1GG	-tos	-co	1d	de-	-pe-	2D/	.	.	.	.	.
!	!	!	!	!	!	!	!	!	!LO:TX:t=P:problem=kreska pseudotaktowa	!	!
!	!	!	!	!	!	!LO:TX:t=P:problem=powrót do poprzedniej strony	!	!	!	!	!
.	.	.	.	.	.	2G/	-mi-	-la-	2b-\	-ctos	-ra
!	!	!	!LO:TX:t=P:problem=kreska pseudotaktowa	!	!	!	!	!	!	!	!
1AA	.	.	1c	-cet	-ra	2E/	-no	-um	2cc\	.	me-
!	!	!	!	!	!	!LO:TX:t=P:problem=kreska pseudotaktowa	!	!	!	!	!
.	.	.	.	.	.	2e\	.	.	2cc\	de-	a
*Xlig	*	*	*	*	*	*	*	*	*	*	*
=67-	=67-	=67-	=67-	=67-	=67-	=67-	=67-	=67-	=67-	=67-	=67-
*	*	*	*	*	*	*custos:e	*	*	*	*	*
1AA	de-	e-	2r	.	.	2c/	re-	bo-	2a\	-cet	.
*	*	*	*	*	*	*xywh-#161:1451,2095,6355,1196	*	*	*	*	*
.	.	.	2c\	de-	me-	2.e\	.	.	2.cc\	col-	re-
!LO:TX:t=P:problem=kreska pseudotaktowa	!	!	!	!	!	!	!	!	!	!	!
1AA	-cet	-go	2A/	-cet	-a	.	.	.	.	.	.
.	.	.	.	.	.	4d/	.	.	4b-\	-lau-	.
.	.	.	2.c/	.	re-	4c/	-ctos	-num	4a/	.	.
!	!	!	!	!	!	!LO:TX:t=P:problem=kreska pseudotaktowa	!	!	!LO:TX:t=P:problem=kreska pseudotaktowa	!	!
.	.	.	.	.	.	4B-/	.	.	4g/	.	.
=68-	=68-	=68-	=68-	=68-	=68-	=68-	=68-	=68-	=68-	=68-	=68-
*lig	*	*	*	*	*	*	*	*	*	*	*
1AA	col-	o-	.	.	.	2A/	.	di-	4a/	.	.
.	.	.	4B-/	.	.	.	.	.	4g/	.	.
.	.	.	4A/	.	.	2a\	.	-co	4f/	.	.
!	!	!	!LO:TX:t=P:problem=kreska pseudotaktowa	!	!	!	!	!	!	!	!
.	.	.	4G/	.	.	.	.	.	4e/	-da-	.
1BB-	.	-pe-	2F/	.	.	2f\	in	e-	2d/	-ti-	.
*	*	*	*	*	*	*	*	*	*custos:cc	*	*
!	!	!	!	!	!	!LO:TX:t=P:problem=kreska pseudotaktowa	!	!	!LO:TX:t=P:problem=kreska pseudotaktowa	!	!
.	.	.	2B-\	col-	.	2d/	.	-go	2dd\	.	.
!	!	!	!	!	!	!	!	!	!LO:LB:g=original	!	!
*Xlig	*	*	*	*	*	*	*	*	*	*	*
!	!	!	!	!	!	!	!	!	!LO:LB:g=original	!	!
=69-	=69-	=69-	=69-	=69-	=69-	=69-	=69-	=69-	=69-	=69-	=69-
*	*	*	*	*	*	*	*	*	*xywh-#58:1662,3052,6290,972	*	*
*custos:C	*	*	*	*	*	*	*	*	*	*	*
!LO:TX:t=P:problem=kreska pseudotaktowa	!	!	!	!	!	!	!	!	!LO:TX:t=P:problem=kreska pseudotaktowa	!	!
1C	.	-ra	2G\	.	-gi	2.g\	.	.	1cc	-o	-gi
*	*	*	*	*	*ij	*	*	*	*	*	*
.	.	.	2.c\	-lau-	re-	.	.	.	.	.	.
.	.	.	.	.	.	4f\	de-	o-	.	.	.
!LO:PB:g=original	!	!	!	!	!	!	!	!	!	!	!
*xywh-#361:1530,695,6319,1197	*	*	*	*	*	*	*	*	*	*	*
2C/	.	me-	.	.	.	4e\	.	-pe-	2r	.	.
.	.	.	4B-/	.	.	4d\	-cet	.	.	.	.
!	!	!	!	!	!	!LO:TX:t=P:problem=kreska pseudotaktowa	!	!	!	!	!
!	!	!	!	!	!	!	!	!	!LO:TX:t=P:problem=kreska pseudotaktowa	!	!
2.F'/	-lau-	-a	4A/	.	.	2c/	.	-ra	1.a\	col-	o-
*	*	*	*custos:A	*	*	*	*	*	*	*	*
!	!	!	!LO:TX:t=P:problem=kreska pseudotaktowa	!	!	!	!	!	!	!	!
.	.	.	4G/	.	-gi	.	.	.	.	.	.
*	*	*	*	*	*Xij	*	*	*	*	*	*
!	!	!	!LO:PB:g=original	!	!	!	!	!	!	!	!
=70-	=70-	=70-	=70-	=70-	=70-	=70-	=70-	=70-	=70-	=70-	=70-
*	*	*	*xywh-#263:1532,561,6300,1113	*	*	*	*	*	*	*	*
.	.	.	4A/	.	.	2c/	.	.	.	.	.
4E/	.	.	4G/	.	.	.	.	.	.	.	.
4D/	-da-	.	4F/	.	.	2.f\	.	.	.	.	.
!LO:TX:t=P:problem=kreska pseudotaktowa	!	!	!LO:TX:t=P:problem=kreska pseudotaktowa	!	!	!	!	!	!	!	!
4C/	.	.	4E/	.	.	.	.	.	.	.	.
4D/	.	re-	2F/	.	.	.	.	.	2a\	-lau-	-pe-
4C/	.	.	.	.	.	4e/	.	.	.	.	.
4BB-/	.	.	2.G/	.	.	4d/	.	.	2.b-\	-da-	-ra
!	!	!	!	!	!	!LO:TX:t=P:problem=kreska pseudotaktowa	!	!	!	!	!
4AA/	.	.	.	.	.	4c/	col-	me-	.	.	.
=71-	=71-	=71-	=71-	=71-	=71-	=71-	=71-	=71-	=71-	=71-	=71-
2GG/	.	.	.	.	.	2B-/	-lau-	.	.	.	.
.	.	.	4F/	-da-	.	.	.	.	4cc\	.	.
!	!	!	!LO:TX:t=P:problem=kreska pseudotaktowa	!	!	!	!	!	!	!	!
2BB-/	.	.	2D/	-ci-	.	2G/	.	.	1dd	.	me-
!LO:TX:t=P:problem=kreska pseudotaktowa	!	!	!	!	!	!	!	!	!	!	!
1AA	.	-gi	1E	-o	.	2.A/	.	.	.	.	.
.	.	.	.	.	.	.	.	.	2cc\	.	-a
!	!	!	!	!	!	!LO:TX:t=P:problem=kreska pseudotaktowa	!	!	!	!	!
.	.	.	.	.	.	4G/	.	.	.	.	.
=72-	=72-	=72-	=72-	=72-	=72-	=72-	=72-	=72-	=72-	=72-	=72-
!	!	!	!	!	!	!	!	!	!LO:TX:t=P:problem=kreska pseudotaktowa	!	!
2r	.	.	00.D	.	.	4A/	-da-	.	1dd	.	.
.	.	.	.	.	.	4G/	.	.	.	.	.
2.D/	.	Re-	.	.	.	4F/	.	.	.	.	.
!	!	!	!	!	!	!LO:TX:t=P:problem=kreska pseudotaktowa	!	!	!	!	!
.	.	.	.	.	.	4E/	.	.	.	.	.
.	.	.	.	.	.	4F/	.	-a-	2r	.	.
4C/	.	.	.	.	.	4E/	.	.	.	.	.
4BB-/	.	.	.	.	.	4D/	.	.	2.dd\	.	.
!LO:TX:t=P:problem=kreska pseudotaktowa	!	!	!	!	!	!LO:TX:t=P:problem=kreska pseudotaktowa	!	!	!	!	!
4AA/	.	.	.	.	.	4C/	.	.	.	.	.
=73-	=73-	=73-	=73-	=73-	=73-	=73-	=73-	=73-	=73-	=73-	=73-
4BB-/	.	.	.	.	.	2D/	.	.	.	.	.
4AA/	.	.	.	.	.	.	.	.	4cc\	.	re-
4GG/	.	.	.	.	.	1d	.	-re-	4b-\	.	.
!	!	!	!	!	!	!	!	!	!LO:TX:t=P:problem=kreska pseudotaktowa	!	!
4FF/	.	.	.	.	.	.	.	.	4a/	.	.
!LO:TX:t=P:problem=kreska pseudotaktowa	!	!	!	!	!	!	!	!	!	!	!
1GG	-ci-	.	.	.	.	.	.	.	2b-/	.	.
.	.	.	.	.	.	4c/	-ti-	-gi	2g/	-ci-	.
.	.	.	.	.	.	4B-/	-o	.	.	.	.
=74-	=74-	=74-	=74-	=74-	=74-	=74-	=74-	=74-	=74-	=74-	=74-
*	*	*	*	*	*	*	*	*	*custos:f	*	*
!LO:N:vis=00	!	!	!	!	!	!LO:N:vis=00	!	!	!LO:N:vis=00	!	!
0D	-o.	-gi	.	.	.	0A	.	.	0f	-o	-gi
!	!	!	!	!	!	!LO:LB:g=original	!	!	!LO:LB:g=original	!	!
=75||-	=75||-	=75||-	=75||-	=75||-	=75||-	=75||-	=75||-	=75||-	=75||-	=75||-	=75||-
!	!	!	!LO:TX:t=P:problem=kreska pseudotaktowa	!	!	!	!	!	!	!	!
1C	Glo-	.	1r	.	.	0r	.	.	0r	.	.
1D	-ri-	.	1F	Glo-	.	.	.	.	.	.	.
=76-	=76-	=76-	=76-	=76-	=76-	=76-	=76-	=76-	=76-	=76-	=76-
!LO:TX:t=P:problem=kreska pseudotaktowa	!	!	!	!	!	!	!	!	!	!	!
*	*	*	*lig	*	*	*2\right	*	*	*	*	*
!	!	!	!	!	!	!LO:TX:t=P:problem=kreska pseudotaktowa	!	!	!LO:TX:t=P:problem=kreska pseudotaktowa	!	!
1E	-a	.	1G	-ri-	.	1r	.	.	0r	.	.
!	!	!	!LO:TX:t=P:problem=kreska pseudotaktowa	!	!	!	!	!	!	!	!
2.F\	pa-	.	1A	-a	.	1c	Glo-	.	.	.	.
4E\	.	.	.	.	.	.	.	.	.	.	.
*	*	*	*Xlig	*	*	*	*	*	*	*	*
=77-	=77-	=77-	=77-	=77-	=77-	=77-	=77-	=77-	=77-	=77-	=77-
*custos:C	*	*	*	*	*	*	*	*	*	*	*
!LO:TX:t=P:problem=kreska pseudotaktowa	!	!	!	!	!	!	!	!	!	!	!
1D	.	.	2.B-/	.	.	1d	-ri-	.	1f	Glo-	.
.	.	.	4A/	.	.	.	.	.	.	.	.
!LO:LB:original	!	!	!	!	!	!	!	!	!	!	!
*xywh-#361:1542,1595,6215,1003	*	*	*	*	*	*	*	*	*	*	*
!LO:TX:t=P:problem=kreska pseudotaktowa	!	!	!	!	!	!LO:TX:t=P:problem=kreska pseudotaktowa	!	!	!	!	!
*	*	*	*	*	*	*	*	*	*lig	*	*
1C	-tri	.	1G	.	.	1e	-a	.	1g	-ri-	.
=78-	=78-	=78-	=78-	=78-	=78-	=78-	=78-	=78-	=78-	=78-	=78-
!	!	!	!LO:TX:t=P:problem=kreska pseudotaktowa	!	!	!	!	!	!	!	!
2r	.	.	1F	.	.	2.f\	pa-	.	1a	.	.
2.D/	pa-	.	.	.	.	.	.	.	.	.	.
.	.	.	.	.	.	4e\	.	.	.	.	.
*	*	*	*	*	*	*	*	*	*Xlig	*	*
!	!	!	!	!	!	!	!	!	!LO:TX:t=P:problem=kreska pseudotaktowa	!	!
.	.	.	2r	.	.	1d	.	.	1a	-a	.
4E/	.	.	.	.	.	.	.	.	.	.	.
4F\	.	.	1f\	pa-	.	.	.	.	.	.	.
!LO:TX:t=P:problem=kreska pseudotaktowa	!	!	!	!	!	!	!	!	!	!	!
4G\	.	.	.	.	.	.	.	.	.	.	.
=79-	=79-	=79-	=79-	=79-	=79-	=79-	=79-	=79-	=79-	=79-	=79-
!	!	!	!	!	!	!LO:TX:t=P:problem=kreska pseudotaktowa	!	!	!	!	!
1A	.	.	.	.	.	1c	-tri	.	1a	pa-	.
!	!	!	!LO:TX:t=P:problem=kreska pseudotaktowa	!	!	!	!	!	!	!	!
.	.	.	2e\	-tri	.	.	.	.	.	.	.
1D	-tri	.	2d\	.	.	2f\	et	.	2a/	-tri	.
.	.	.	2.f\	et	.	2.d\	fi-	.	2a/	et	.
=80-	=80-	=80-	=80-	=80-	=80-	=80-	=80-	=80-	=80-	=80-	=80-
!LO:TX:t=P:problem=kreska pseudotaktowa	!	!	!	!	!	!	!	!	!	!	!
1D	et	.	.	.	.	.	.	.	2a/	fi-	.
.	.	.	4e\	fi-	.	4e\	.	.	.	.	.
!	!	!	!	!	!	!	!	!	!LO:TX:t=P:problem=kreska pseudotaktowa	!	!
.	.	.	1d	-li-	.	2f\	.	.	2a/	-li-	.
!	!	!	!	!	!	!	!	!	!LO:TX:t=P:problem=kreska pseudotaktowa	!	!
2A\	fi-	.	.	.	.	1e	-li-	.	1a	-o	.
*	*	*	*custos:d	*	*	*	*	*	*	*	*
!	!	!	!LO:TX:t=P:problem=kreska pseudotaktowa	!	!	!	!	!	!	!	!
2A\	-li-	.	2c/	.	.	.	.	.	.	.	.
!	!	!	!LO:LB:g=original	!	!	!	!	!	!	!	!
=81-	=81-	=81-	=81-	=81-	=81-	=81-	=81-	=81-	=81-	=81-	=81-
*	*	*	*xywh-#263:1532,1371,6307,1113	*	*	*	*	*	*	*	*
!LO:TX:t=P:problem=kreska pseudotaktowa	!	!	!	!	!	!	!	!	!	!	!
1D	-o	.	2d\	-o	.	2d\	-o	.	1a	et	.
!	!	!	!	!	!	!LO:TX:t=P:problem=kreska pseudotaktowa	!	!	!	!	!
.	.	.	2A/	et	.	2e\	et	.	.	.	.
1r	.	.	2d\	ſpi-	.	2f\	ſpi-	.	1a	ſpi-	.
!	!	!	!LO:TX:t=P:problem=kreska pseudotaktowa	!	!	!	!	!	!	!	!
.	.	.	2c\	-ri-	.	2e\	-ri-	.	.	.	.
=82-	=82-	=82-	=82-	=82-	=82-	=82-	=82-	=82-	=82-	=82-	=82-
*	*	*	*	*	*	*	*	*	*lig	*	*
2r	.	.	1d	-tu-	.	1f	-tu-	.	1a	-ri-	.
2D/	et	.	.	.	.	.	.	.	.	.	.
2.A\	ſpi-	.	2A/	-i	.	2e\	-i	.	1cc	.	.
.	.	.	4F/	ſan-	.	2.a\	San-	.	.	.	.
!LO:TX:t=P:problem=kreska pseudotaktowa	!	!	!	!	!	!	!	!	!	!	!
!	!	!	!LO:TX:t=P:problem=kreska pseudotaktowa	!	!	!	!	!	!	!	!
4G\	-ri-	.	4G/	.	.	.	.	.	.	.	.
*	*	*	*	*	*	*	*	*	*Xlig	*	*
=83-	=83-	=83-	=83-	=83-	=83-	=83-	=83-	=83-	=83-	=83-	=83-
!	!	!	!	!	!	!	!	!	!LO:TX:t=P:problem=kreska pseudotaktowa	!	!
1F	-tu-	.	4A/	.	.	.	.	.	1a	-tu-	.
.	.	.	4B-/	.	.	4g\	.	.	.	.	.
.	.	.	2.c/	.	.	4f\	.	.	.	.	.
!	!	!	!	!	!	!LO:TX:t=P:problem=kreska pseudotaktowa	!	!	!	!	!
.	.	.	.	.	.	4e\	.	.	.	.	.
2F\	-i	.	.	.	.	1.f	.	.	2a/	-i	.
.	.	.	4A/	.	.	.	.	.	.	.	.
1BB-/	ſan-	.	1d\	.	.	.	.	.	2.b-/	ſan-	.
=84-	=84-	=84-	=84-	=84-	=84-	=84-	=84-	=84-	=84-	=84-	=84-
.	.	.	.	.	.	.	.	.	.	.	.
.	.	.	.	.	.	.	.	.	4a/	.	.
!LO:TX:t=P:problem=kreska pseudotaktowa	!	!	!LO:TX:t=P:problem=kreska pseudotaktowa	!	!	!	!	!	!	!	!
2C/	.	.	2c\	-cto-	.	2e\	.	.	1a	.	.
2D/	.	.	1B-	.	.	2f\	.	.	.	.	.
2E/	.	.	.	.	.	4e\	.	.	2g/	.	.
!	!	!	!	!	!	!LO:TX:t=P:problem=kreska pseudotaktowa	!	!	!LO:TX:t=P:problem=kreska pseudotaktowa	!	!
.	.	.	.	.	.	4d\	.	.	.	.	.
=85-	=85-	=85-	=85-	=85-	=85-	=85-	=85-	=85-	=85-	=85-	=85-
2F\	.	.	2A/	.	.	2c\	.	.	0a	-cto	.
.	.	.	.	.	.	.	.	.	.	.	.
2.D\	.	.	2.F/	.	.	1f	.	.	.	.	.
4E\	.	.	4G/	.	.	.	.	.	.	.	.
4F\	.	.	4A/	.	.	4e\	.	.	.	.	.
!LO:TX:t=P:problem=kreska pseudotaktowa	!	!	!LO:TX:t=P:problem=kreska pseudotaktowa	!	!	!LO:TX:t=P:problem=kreska pseudotaktowa	!	!	!	!	!
4G\	.	.	4B-/	.	.	4d\	.	.	.	.	.
=86-	=86-	=86-	=86-	=86-	=86-	=86-	=86-	=86-	=86-	=86-	=86-
2A\	.	.	2c\	.	.	2c/	.	.	1r	.	.
4G\	.	.	1d	.	.	4B-/	.	.	.	.	.
4F\	.	.	.	.	.	4A/	.	.	.	.	.
*	*	*	*	*	*	*	*	*	*lig	*	*
1E	.	.	.	.	.	1G	.	.	1g	Si-	.
.	.	.	2c\	.	.	.	.	.	.	.	.
!!linebreak:original
=87-	=87-	=87-	=87-	=87-	=87-	=87-	=87-	=87-	=87-	=87-	=87-
!LO:TX:t=P:problem=kreska pseudotaktowa	!	!	!	!	!	!	!	!	!	!	!
1D	-cto	.	1d	-cto	.	4A/	.	.	1f	.	.
.	.	.	.	.	.	4F/	-cto	.	.	.	.
.	.	.	.	.	.	1f	Si-	.	.	.	.
*	*	*	*	*	*	*	*	*	*Xlig	*	*
*	*	*	*	*	*	*	*	*	*lig	*	*
1r	.	.	1c	.	.	.	.	.	1g	-cut	.
!	!	!	!	!	!	!LO:TX:t=P:problem=kreska pseudotaktowa	!	!	!	!	!
.	.	.	.	.	.	2e\	-cut	.	.	.	.
=88-	=88-	=88-	=88-	=88-	=88-	=88-	=88-	=88-	=88-	=88-	=88-
!	!	!	!LO:TX:t=P:problem=kreska pseudotaktowa	!	!	!	!	!	!LO:TX:t=P:problem=kreska pseudotaktowa	!	!
2r	.	.	1F	.	.	1f	e-	.	1a	.	.
!LO:TX:t=P:problem=kreska pseudotaktowa	!	!	!	!	!	!	!	!	!	!	!
2D/	Si-	.	.	.	.	.	.	.	.	.	.
*	*	*	*	*	*	*	*	*	*Xlig	*	*
!	!	!	!	!	!	!LO:TX:t=P:problem=kreska pseudotaktowa	!	!	!	!	!
2AA/	-cut	.	2r	.	.	1e	-rat	.	1a	e-	.
2AA/	e-	.	1c\	Si-	.	.	.	.	.	.	.
=89-	=89-	=89-	=89-	=89-	=89-	=89-	=89-	=89-	=89-	=89-	=89-
*custos:AA	*	*	*	*	*	*custos:e	*	*	*	*	*
2AA/	-rat	.	.	.	.	2r	.	.	2a/	-rat	.
!LO:LB:g=original	!	!	!	!	!	!	!	!	!	!	!
*xywh-#361:1535,2370,6201,1059	*	*	*	*	*	*	*	*	*	*	*
!LO:TX:t=P:problem=kreska pseudotaktowa	!	!	!	!	!	!	!	!	!	!	!
2AA/	in	.	2c\	-cut	.	2e\	in	.	1a	in	.
!	!	!	!	!	!	!LO:LB:g=original	!	!	!	!	!
!	!	!	!LO:TX:t=P:problem=kreska pseudotaktowa	!	!	!	!	!	!	!	!
2AA/	prin-	.	1c	e-	.	2e\	prin-	.	.	.	.
!	!	!	!	!	!	!	!	!	!LO:TX:t=P:problem=kreska pseudotaktowa	!	!
1D\	-ci-	.	.	.	.	2.A'/	.	.	2a/	prin-	.
=90-	=90-	=90-	=90-	=90-	=90-	=90-	=90-	=90-	=90-	=90-	=90-
*	*	*	*custos:A	*	*	*	*	*	*	*	*
.	.	.	2F/	-rat	.	.	.	.	2a/	-ci-	.
.	.	.	.	.	.	4B-/	-ci-	.	.	.	.
*	*	*	*	*	*	*	*	*	*custos:a	*	*
!	!	!	!LO:LB:g=original	!	!	!	!	!	!LO:TX:t=P:problem=kreska pseudotaktowa	!	!
*	*	*	*xywh-#263:1539,2353,6300,1023	*	*	*	*	*	*	*	*
4C/	.	.	1A	in	.	4c/	.	.	2a/	-pi-	.
!	!	!	!	!	!	!LO:TX:t=P:problem=kreska pseudotaktowa	!	!LO:LB:g=original	!	!	!
4BB-/	.	.	.	.	.	4d/	.	.	.	.	.
!LO:TX:t=P:problem=kreska pseudotaktowa	!	!	!	!	!	!	!	!	!	!	!
*	*	*	*	*	*	*	*	*	*xywh-#58:1656,3781,6151,1388	*	*
1AA	.	.	.	.	.	2e\	.	.	1a	-o	.
.	.	.	4G/	prin-	.	1d\	.	.	.	.	.
!	!	!	!LO:TX:t=P:problem=kreska pseudotaktowa	!	!	!	!	!	!	!	!
.	.	.	4F/	.	.	.	.	.	.	.	.
=91-	=91-	=91-	=91-	=91-	=91-	=91-	=91-	=91-	=91-	=91-	=91-
!	!	!	!	!	!	!	!	!	!LO:TX:t=P:problem=kreska pseudotaktowa	!	!
1AA	-pi-	.	2E/	-ci-	.	.	.	.	1a	et	.
!	!	!	!	!	!	!LO:TX:t=P:problem=kreska pseudotaktowa	!	!	!	!	!
.	.	.	2E/	-pi-	.	2c\	-pi-	.	.	.	.
!LO:TX:t=P:problem=kreska pseudotaktowa	!	!	!	!	!	!	!	!	!	!	!
*	*	*	*	*	*	*	*	*	*lig	*	*
1D	-o	.	2D/	-o	.	2d\	-o	.	1a	nunc	.
!	!	!	!LO:TX:t=P:problem=kreska pseudotaktowa	!	!	!	!	!	!	!	!
.	.	.	2d\	et	.	2f\	et	.	.	.	.
=92-	=92-	=92-	=92-	=92-	=92-	=92-	=92-	=92-	=92-	=92-	=92-
0r	.	.	2c\	nunc	.	2e\	nu(n)c	.	1cc	.	.
.	.	.	2A/	.	.	4a\	et	.	.	.	.
.	.	.	.	.	.	4g\	.	.	.	.	.
*	*	*	*	*	*	*	*	*	*Xlig	*	*
.	.	.	1.d	et	.	4f\	.	.	2a,/	et	.
.	.	.	.	.	.	4e\	.	.	.	.	.
.	.	.	.	.	.	1f\	.	.	2.b-/	ſem-	.
=93-	=93-	=93-	=93-	=93-	=93-	=93-	=93-	=93-	=93-	=93-	=93-
0r	.	.	.	.	.	.	.	.	.	.	.
.	.	.	.	.	.	.	.	.	4a/	.	.
!	!	!	!LO:TX:t=P:problem=kreska pseudotaktowa	!	!	!	!	!	!	!	!
.	.	.	2c/	.	.	2e\	ſem-	.	1a	.	.
.	.	.	1B-	ſem-	.	1d	-p(er)	.	.	.	.
!	!	!	!	!	!	!	!	!	!LO:TX:t=P:problem=kreska pseudotaktowa	!	!
.	.	.	.	.	.	.	.	.	2g/	-per	.
=94-	=94-	=94-	=94-	=94-	=94-	=94-	=94-	=94-	=94-	=94-	=94-
!	!	!	!	!	!	!LO:TX:t=P:problem=kreska pseudotaktowa	!	!	!LO:TX:t=P:problem=kreska pseudotaktowa	!	!
2r	.	.	2.A/	.	.	1e	.	.	1a	.	.
!LO:TX:t=P:problem=kreska pseudotaktowa	!	!	!	!	!	!	!	!	!	!	!
2A\	et	.	.	.	.	.	.	.	.	.	.
!	!	!	!LO:TX:t=P:problem=kreska pseudotaktowa	!	!	!	!	!	!	!	!
.	.	.	4B-/	.	.	.	.	.	.	.	.
2F\	nu(n)c	.	2c/	.	.	2r	.	.	1r	.	.
2D/	et	.	1d\	-per	.	1f\	ſem-	.	.	.	.
=95-	=95-	=95-	=95-	=95-	=95-	=95-	=95-	=95-	=95-	=95-	=95-
!LO:TX:t=P:problem=kreska pseudotaktowa	!	!	!	!	!	!	!	!	!	!	!
*	*	*	*	*	*	*	*	*	*lig	*	*
1E	ſ(em)-	.	.	.	.	.	.	.	1g	et	.
.	.	.	2c/	.	.	2e\	-per	.	.	.	.
2D/	-p(er)	.	2d,\	.	.	2f\	.	.	1f	.	.
1F\	et	.	1A\	et	.	1c\	et	.	.	.	.
*	*	*	*	*	*	*	*	*	*Xlig	*	*
=96-	=96-	=96-	=96-	=96-	=96-	=96-	=96-	=96-	=96-	=96-	=96-
*	*	*	*	*	*	*	*	*	*lig	*	*
.	.	.	.	.	.	.	.	.	1g	in	.
!LO:TX:t=P:problem=kreska pseudotaktowa	!	!	!LO:TX:t=P:problem=kreska pseudotaktowa	!	!	!LO:TX:t=P:problem=kreska pseudotaktowa	!	!	!	!	!
2E/	in	.	2G/	in	.	2c\	in	.	.	.	.
!	!	!	!	!	!	!	!	!	!LO:TX:t=P:problem=kreska pseudotaktowa	!	!
2D/	ſae-	.	2F/	.	.	2d\	ſae-	.	1a	.	.
2C/	.	.	2E/	ſae-	.	2e\	.	.	.	.	.
*	*	*	*	*	*	*	*	*	*Xlig	*	*
=97-	=97-	=97-	=97-	=97-	=97-	=97-	=97-	=97-	=97-	=97-	=97-
1D	-cu-	.	1F	-cu-	.	1d	-cu-	.	2a/	ſe--	.
.	.	.	.	.	.	.	.	.	2a/	-cu-	.
!LO:TX:t=P:problem=kreska pseudotaktowa	!	!	!	!	!	!LO:TX:t=P:problem=kreska pseudotaktowa	!	!	!LO:TX:t=P:problem=kreska pseudotaktowa	!	!
0AA	-la	.	2E/	-la	.	1c	-la	.	1a	-la	.
.	.	.	2.A/	ſae-	.	.	.	.	.	.	.
=98-	=98-	=98-	=98-	=98-	=98-	=98-	=98-	=98-	=98-	=98-	=98-
.	.	.	.	.	.	1e	ſae-	.	1a	ſe-	.
.	.	.	4B-/	.	.	.	.	.	.	.	.
.	.	.	1c	-cu-	.	.	.	.	.	.	.
2r	.	.	.	.	.	1e	-cu-	.	2a/	-cu-	.
1C/	ſae-	.	4B-/	.	.	.	.	.	1cc\	-lo-	.
!	!	!	!LO:TX:t=P:problem=kreska pseudotaktowa	!	!	!	!	!	!	!	!
.	.	.	4A/	.	.	.	.	.	.	.	.
=99-	=99-	=99-	=99-	=99-	=99-	=99-	=99-	=99-	=99-	=99-	=99-
.	.	.	2G/	-lo-	.	1e	-lo-	.	.	.	.
!LO:TX:t=P:problem=kreska pseudotaktowa	!	!	!	!	!	!	!	!	!	!	!
2C/	-cu-	.	1c	-rum	.	.	.	.	4b-/	.	.
!	!	!	!	!	!	!	!	!	!LO:TX:t=P:problem=kreska pseudotaktowa	!	!
.	.	.	.	.	.	.	.	.	4a/	.	.
!	!	!	!	!	!	!LO:TX:t=P:problem=kreska pseudotaktowa	!	!	!	!	!
1G	-lo-	.	.	.	.	1d	-ru(m)	.	1g	.	.
!	!	!	!LO:TX:t=P:problem=kreska pseudotaktowa	!	!	!	!	!	!	!	!
.	.	.	2B-/	.	.	.	.	.	.	.	.
=100-	=100-	=100-	=100-	=100-	=100-	=100-	=100-	=100-	=100-	=100-	=100-
2C/	-ru(m)	.	2c/	.	.	0r	.	.	2e/	.	.
!	!	!	!	!	!	!	!	!	!LO:TX:t=P:problem=kreska pseudotaktowa	!	!
1.D	A-	.	1A	A-	.	.	.	.	2.f/	.	.
.	.	.	.	.	.	.	.	.	4e/	.	.
.	.	.	4G/	.	.	.	.	.	1d/	.	.
.	.	.	4F/	.	.	.	.	.	.	.	.
=101-	=101-	=101-	=101-	=101-	=101-	=101-	=101-	=101-	=101-	=101-	=101-
!LO:TX:t=P:problem=kreska pseudotaktowa	!	!	!	!	!	!	!	!	!	!	!
1AA	-men	.	1E	-men	.	1.A	A-	.	.	.	.
.	.	.	.	.	.	.	.	.	2c/	-ru(m)	.
!	!	!	!	!	!	!	!	!	!LO:TX:t=P:problem=kreska pseudotaktowa	!	!
2r	.	.	00;F	.	.	.	.	.	1d	a-	.
1D\	A-	.	.	.	.	2G/	.	.	.	.	.
=102-	=102-	=102-	=102-	=102-	=102-	=102-	=102-	=102-	=102-	=102-	=102-
.	.	.	.	.	.	2F/	.	.	1.dd	-men	.
!LO:TX:t=P:problem=kreska pseudotaktowa	!	!	!	!	!	!	!	!	!	!	!
2C/	.	.	.	.	.	2E/	.	.	.	.	.
2BB-/	.	.	.	.	.	2D/	.	.	.	.	.
!LO:TX:t=P:problem=kreska pseudotaktowa	!	!	!	!	!	!	!	!	!	!	!
2AA/	.	.	.	.	.	2A/	.	.	2cc/	A-	.
=103-	=103-	=103-	=103-	=103-	=103-	=103-	=103-	=103-	=103-	=103-	=103-
2GG/	.	.	.	.	.	2B-/	.	.	2b-/	.	.
!	!	!	!	!	!	!	!	!	!LO:TX:t=P:problem=kreska pseudotaktowa	!	!
2FF/	.	.	.	.	.	2F/	.	.	2a/	.	.
1GG	.	.	0.Fyy	.	.	1B-	-men	.	1g	.	.
=104-	=104-	=104-	=104-	=104-	=104-	=104-	=104-	=104-	=104-	=104-	=104-
!LO:N:vis=00	!	!	!	!	!	!LO:N:vis=00	!	!	!LO:N:vis=00	!	!
!LO:TX:a:t=#	!	!	!	!	!	!	!	!	!	!	!
0D	-men	.	.	.	.	0A\	.	.	0f#X	-MEN	.
==	==	==	==	==	==	==	=-	==	==	==	==
*-	*-	*-	*-	*-	*-	*-	*-	*-	*-	*-	*-
!!!RDF**kern: > = above
!!!system-decoration: s1,s2,s3,s4
!!!ENC: Andrzej Gręziak
!!!END: 2022-01-16
!!!ENC: Urszula Świątek
!!!END: 2022-01-24
!!!IIIF: https://repozytorium.nifc.pl/islandora/object/pl-kk%3A750/datastream/IIIF/view
!!!ENC-iiif: Natalia Wrzos
!!!END-iiif: 2022-09-03
!!!YEC: Copyright 2022 Narodowy Instytut Fryderyka Chopina (https://polishscores.org)
!!!YEM: License CC-BY-4.0 (https://creativecommons.org/licenses/by/4.0)
